v8/libs/icons/svgs/bucket.svg

<svg viewBox="0 0 24 24"  xmlns="http://www.w3.org/2000/svg">
<path  d="M20 8V10H18.914L17.996 20.091C17.9526 20.5655 17.5812 20.9385 17.1177 20.9931L17 21H7C6.52277 21 6.11796 20.6634 6.02154 20.2074L6.004 20.091L5.086 10H4V8H20ZM12 1C14.9731 1 17.4411 3.16238 17.9171 6.00019L15.874 6.00024C15.4301 4.27489 13.8639 3 12 3C10.1361 3 8.56991 4.27489 8.12595 6.00024L6.08293 6.00019C6.55893 3.16238 9.02694 1 12 1Z" />
</svg>

<svg xmlns="http://www.w3.org/2000/svg" width="24" height="24">
    <path d="M20 8v2h-1.086l-.918 10.091a1.001 1.001 0 01-.878.902L17 21H7c-.477 0-.882-.337-.978-.793l-.018-.116L5.086 10H4V8h16zm-8-7a6.002 6.002 0 015.917 5h-2.043a4.002 4.002 0 00-7.748 0H6.083A6.002 6.002 0 0112 1z"/>
</svg>
